assets/img/icons/duotone-icons/Tools/Road-Cone.svg

<?xml version="1.0" encoding="UTF-8"?>
<svg width="24px" height="24px" viewBox="0 0 24 24" version="1.1" xmlns="http://www.w3.org/2000/svg" xmlns:xlink="http://www.w3.org/1999/xlink">
    <!-- Generator: Sketch 52.2 (67145) - http://www.bohemiancoding.com/sketch -->
    <title>Stockholm-icons / Tools / Road-Cone</title>
    <desc>Created with Sketch.</desc>
    <g id="Stockholm-icons-/-Tools-/-Road-Cone" stroke="none" stroke-width="1" fill="none" fill-rule="evenodd">
        <rect id="bound" x="0" y="0" width="24" height="24"></rect>
        <path d="M14.8520384,9 L15.7780576,12 L8.22196243,12 L9.14797495,9 L14.8520384,9 Z M13.9260192,6 L10.0739875,6 L10.7050601,3.95551581 C10.8804029,3.38745846 11.4054966,3 12,3 C12.5945036,3 13.1195978,3.38745798 13.2949418,3.95551522 L13.9260192,6 Z M16.7040768,15 L17.9387691,19 L6.06126654,19 L7.2959499,15 L16.7040768,15 Z" id="Combined-Shape" fill="#335EEA"></path>
        <rect id="Rectangle" fill="#335EEA" opacity="0.3" x="3" y="20" width="18" height="2" rx="1"></rect>
    </g>
</svg>

<svg width="24" height="24" viewBox="0 0 24 24" xmlns="http://www.w3.org/2000/svg"><g fill="none" fill-rule="evenodd"><path d="M0 0h24v24H0z"/><path d="M14.852 9l.926 3H8.222l.926-3h5.704zm-.926-3h-3.852l.631-2.044a1.355 1.355 0 012.59 0L13.926 6zm2.778 9l1.235 4H6.06l1.235-4h9.408z" fill="#335EEA"/><rect fill="#335EEA" opacity=".3" x="3" y="20" width="18" height="2" rx="1"/></g></svg>
